X:235
T: ES BLIES EIN JAEGER WOHL IN SEIN HORN
N: Z0234
O: Europa, Mitteleuropa, Deutschland, Herzogtum Berg
R: Jaeger - Lied
M: 2/4
L: 1/16
K: Eb
GA | B2c2B2A2 | G2F2G2
AB | c2B2A2G2 | F4z2
EG | B2B2B2e2 | c4
B2A2 | G4F2E2 | E4z2
EF | G2GGG2GG | G4z2
FG | A2AAA2AA | A4z2
GA | B2B2B2e2 | c4B2
A2 | G4F2F2 | E4z2

